Catalina-dark/actions/22/format-text-italic.svg

<svg viewBox="0 0 22 22" xmlns="http://www.w3.org/2000/svg">
<defs>
<style id="current-color-scheme" type="text/css">.ColorScheme-Text {
        color:#f2f2f2;
      }</style>
</defs>
<path class="ColorScheme-Text" d="m8 3v1h5l-6 14h-3v1h10v-1h-5l6-14h3v-1h-10z" fill="currentColor"/>
</svg>

<svg xmlns="http://www.w3.org/2000/svg" viewBox="0 0 22 22">
  <defs id="defs3051">
    <style type="text/css" id="current-color-scheme">
      .ColorScheme-Text {
        color:#f2f2f2;
      }
      </style>
  </defs>
 <path 
    style="fill:currentColor;fill-opacity:1;stroke:none" 
    d="M 8 3 L 8 4 L 13 4 L 7 18 L 4 18 L 4 19 L 14 19 L 14 18 L 9 18 L 15 4 L 18 4 L 18 3 L 8 3 z "
    class="ColorScheme-Text"
    />  
</svg>
